poi/svg/2001.svg

<?xml version="1.0" encoding="UTF-8" standalone="no"?>
<svg
   xmlns:dc="http://purl.org/dc/elements/1.1/"
   xmlns:cc="http://creativecommons.org/ns#"
   xmlns:rdf="http://www.w3.org/1999/02/22-rdf-syntax-ns#"
   xmlns:svg="http://www.w3.org/2000/svg"
   xmlns="http://www.w3.org/2000/svg"
   xmlns:sodipodi="http://sodipodi.sourceforge.net/DTD/sodipodi-0.dtd"
   xmlns:inkscape="http://www.inkscape.org/namespaces/inkscape"
   inkscape:version="1.0 (4035a4fb49, 2020-05-01)"
   sodipodi:docname="2001.svg"
   id="svg20"
   version="1.2"
   viewBox="0 0 42.519639 42.519639"
   height="14.999999mm"
   width="14.999999mm">
  <metadata
     id="metadata24">
    <rdf:RDF>
      <cc:Work
         rdf:about="">
        <dc:format>image/svg+xml</dc:format>
        <dc:type
           rdf:resource="http://purl.org/dc/dcmitype/StillImage" />
        <dc:title>Qt SVG Document</dc:title>
      </cc:Work>
    </rdf:RDF>
  </metadata>
  <sodipodi:namedview
     inkscape:current-layer="svg20"
     inkscape:window-maximized="0"
     inkscape:window-y="0"
     inkscape:window-x="0"
     inkscape:cy="28.346482"
     inkscape:cx="28.346482"
     inkscape:zoom="5.8410537"
     showgrid="false"
     id="namedview22"
     inkscape:window-height="480"
     inkscape:window-width="1034"
     inkscape:pageshadow="2"
     inkscape:pageopacity="0"
     guidetolerance="10"
     gridtolerance="10"
     objecttolerance="10"
     borderopacity="1"
     bordercolor="#666666"
     pagecolor="#ffffff" />
  <title
     id="title2">Qt SVG Document</title>
  <desc
     id="desc4">Generated with Qt</desc>
  <defs
     id="defs6" />
  <g
     transform="translate(5.25984,5.25984)"
     id="g18"
     stroke-linejoin="bevel"
     stroke-linecap="square"
     fill-rule="evenodd"
     stroke-width="1"
     stroke="#000000"
     fill="none">
    <g
       id="g10"
       font-style="normal"
       font-weight="400"
       font-size="7.8px"
       font-family="'MS Shell Dlg 2'"
       stroke="none"
       fill-opacity="1"
       fill="#a61215">
      <path
         id="path8"
         d="M 37.2598,16 C 37.2598,27.7415 27.7415,37.2598 16,37.2598 4.25851,37.2598 -5.25984,27.7415 -5.25984,16 -5.25984,4.25851 4.25851,-5.25984 16,-5.25984 27.7415,-5.25984 37.2598,4.25851 37.2598,16"
         fill-rule="evenodd"
         vector-effect="non-scaling-stroke" />
    </g>
    <g
       id="g14"
       font-style="normal"
       font-weight="400"
       font-size="7.8px"
       font-family="'MS Shell Dlg 2'"
       transform="translate(16,13.1654)"
       stroke="none"
       fill-opacity="0.94902"
       fill="#ffffff">
      <path
         id="path12"
         d="m 6.45801,-7.58496 c 0.05599,-0.40593 0.22746,-0.60189 0.5144,-0.58789 0.28695,0.014 0.58789,0.19946 0.90283,0.55639 0.31495,0.35694 0.5809,0.87484 0.79786,1.55372 0.21696,0.67887 0.29744,1.47322 0.24145,2.38305 L 8.47363,4.48779 C 8.41764,5.27165 8.26717,5.84904 8.02222,6.21997 7.77726,6.5909 7.51481,6.84635 7.23486,6.98633 6.91292,7.1543 6.54199,7.22428 6.12207,7.19629 L 5.17725,15.9727 C 5.07926,16.4346 4.8798,16.7495 4.57886,16.9175 4.27791,17.0854 3.96297,17.1484 3.63403,17.1064 3.30509,17.0645 3.03564,16.907 2.82568,16.634 2.61572,16.3611 2.55273,16.0007 2.63672,15.5527 L 6.45801,-7.58496 M -1.0166,15.3638 c 0.055988,0.4899 -0.04549,0.8783 -0.30444,1.1653 -0.25896,0.2869 -0.5599,0.4514 -0.90284,0.4934 -0.34293,0.042 -0.67187,-0.028 -0.98681,-0.21 -0.31494,-0.182 -0.50041,-0.5179 -0.5564,-1.0078 L -5.3208,2.17822 C -5.78271,2.26221 -6.29362,2.17472 -6.85352,1.91577 -7.41341,1.65682 -7.72135,1.26839 -7.77734,0.750488 l -1.1128,-7.516598 c -0.02799,-0.18197 0,-0.31494 0.08399,-0.39893 0.08398,-0.08398 0.18896,-0.13297 0.31494,-0.14697 0.12598,-0.014 0.24145,0.014 0.34643,0.08398 0.10499,0.06999 0.17147,0.20996 0.19947,0.41992 l 0.94482,5.417 1.46973,-0.18897 -0.69287,-5.58496 c -0.028,-0.13997 0,-0.25895 0.08398,-0.35693 0.08399,-0.09798 0.18197,-0.15397 0.29395,-0.16797 0.11198,-0.014 0.22745,0.014 0.34643,0.08398 0.11898,0.06999 0.17847,0.18897 0.17847,0.35694 L -4.37598,-1.74805 -2.82227,-2 -3.59912,-7.50098 c -0.028,-0.16797 0,-0.30444 0.08398,-0.40942 0.08399,-0.10498 0.18897,-0.17147 0.31494,-0.19946 0.12598,-0.028 0.24846,-0.007 0.36744,0.06298 0.11897,0.06999 0.20646,0.19597 0.26245,0.37793 l 1.11279,7.558598 c 0.028,0.223959 -0.014,0.444418 -0.12598,0.661377 C -1.69548,0.767985 -1.83895,0.963949 -2.01392,1.13892 -2.18888,1.31388 -2.39884,1.47135 -2.6438,1.61133 -2.88875,1.7513 -3.12321,1.83529 -3.34717,1.86328 L -1.0166,15.3638"
         fill-rule="evenodd"
         vector-effect="none" />
    </g>
    <g
       id="g16"
       font-style="normal"
       font-weight="400"
       font-size="7.8px"
       font-family="'MS Shell Dlg 2'"
       stroke="none"
       fill-opacity="1"
       fill="#a61215" />
  </g>
</svg>

<?xml version="1.0" encoding="UTF-8" standalone="no"?>
<svg width="11.2889mm" height="11.2889mm"
 viewBox="0 0 32 32"
 xmlns="http://www.w3.org/2000/svg" xmlns:xlink="http://www.w3.org/1999/xlink"  version="1.2" baseProfile="tiny">
<title>Qt SVG Document</title>
<desc>Generated with Qt</desc>
<defs>
</defs>
<g fill="none" stroke="black" stroke-width="1" fill-rule="evenodd" stroke-linecap="square" stroke-linejoin="bevel" >

<g fill="#a61215" fill-opacity="1" stroke="none" transform="matrix(1,0,0,1,0,0)"
font-family="MS Shell Dlg 2" font-size="7.8" font-weight="400" font-style="normal" 
>
<path vector-effect="non-scaling-stroke" fill-rule="evenodd" d="M37.2598,16 C37.2598,27.7415 27.7415,37.2598 16,37.2598 C4.25851,37.2598 -5.25984,27.7415 -5.25984,16 C-5.25984,4.25851 4.25851,-5.25984 16,-5.25984 C27.7415,-5.25984 37.2598,4.25851 37.2598,16 "/>
</g>

<g fill="#ffffff" fill-opacity="0.94902" stroke="none" transform="matrix(1,0,0,1,16,13.1654)"
font-family="MS Shell Dlg 2" font-size="7.8" font-weight="400" font-style="normal" 
>
<path vector-effect="none" fill-rule="evenodd" d="M6.45801,-7.58496 C6.514,-7.99089 6.68547,-8.18685 6.97241,-8.17285 C7.25936,-8.15885 7.5603,-7.97339 7.87524,-7.61646 C8.19019,-7.25952 8.45614,-6.74162 8.6731,-6.06274 C8.89006,-5.38387 8.97054,-4.58952 8.91455,-3.67969 L8.47363,4.48779 C8.41764,5.27165 8.26717,5.84904 8.02222,6.21997 C7.77726,6.5909 7.51481,6.84635 7.23486,6.98633 C6.91292,7.1543 6.54199,7.22428 6.12207,7.19629 L5.17725,15.9727 C5.07926,16.4346 4.8798,16.7495 4.57886,16.9175 C4.27791,17.0854 3.96297,17.1484 3.63403,17.1064 C3.30509,17.0645 3.03564,16.907 2.82568,16.634 C2.61572,16.3611 2.55273,16.0007 2.63672,15.5527 L6.45801,-7.58496 M-1.0166,15.3638 C-0.960612,15.8537 -1.06209,16.2421 -1.32104,16.5291 C-1.58,16.816 -1.88094,16.9805 -2.22388,17.0225 C-2.56681,17.0645 -2.89575,16.9945 -3.21069,16.8125 C-3.52563,16.6305 -3.7111,16.2946 -3.76709,15.8047 L-5.3208,2.17822 C-5.78271,2.26221 -6.29362,2.17472 -6.85352,1.91577 C-7.41341,1.65682 -7.72135,1.26839 -7.77734,0.750488 L-8.89014,-6.76611 C-8.91813,-6.94808 -8.89014,-7.08105 -8.80615,-7.16504 C-8.72217,-7.24902 -8.61719,-7.29801 -8.49121,-7.31201 C-8.36523,-7.32601 -8.24976,-7.29801 -8.14478,-7.22803 C-8.03979,-7.15804 -7.97331,-7.01807 -7.94531,-6.80811 L-7.00049,-1.39111 L-5.53076,-1.58008 L-6.22363,-7.16504 C-6.25163,-7.30501 -6.22363,-7.42399 -6.13965,-7.52197 C-6.05566,-7.61995 -5.95768,-7.67594 -5.8457,-7.68994 C-5.73372,-7.70394 -5.61825,-7.67594 -5.49927,-7.60596 C-5.38029,-7.53597 -5.3208,-7.41699 -5.3208,-7.24902 L-4.37598,-1.74805 L-2.82227,-2 L-3.59912,-7.50098 C-3.62712,-7.66895 -3.59912,-7.80542 -3.51514,-7.9104 C-3.43115,-8.01538 -3.32617,-8.08187 -3.2002,-8.10986 C-3.07422,-8.13786 -2.95174,-8.11686 -2.83276,-8.04688 C-2.71379,-7.97689 -2.6263,-7.85091 -2.57031,-7.66895 L-1.45752,-0.110352 C-1.42952,0.113607 -1.47152,0.334066 -1.5835,0.551025 C-1.69548,0.767985 -1.83895,0.963949 -2.01392,1.13892 C-2.18888,1.31388 -2.39884,1.47135 -2.6438,1.61133 C-2.88875,1.7513 -3.12321,1.83529 -3.34717,1.86328 L-1.0166,15.3638"/>
</g>

<g fill="#a61215" fill-opacity="1" stroke="none" transform="matrix(1,0,0,1,0,0)"
font-family="MS Shell Dlg 2" font-size="7.8" font-weight="400" font-style="normal" 
>
</g>
</g>
</svg>
